;FLAVOR:Marlin
;TIME:2992
;Filament used: 1.97757m
;Layer height: 0.2
;MINX:78.653
;MINY:81.918
;MINZ:0.2
;MAXX:157.25
;MAXY:133.083
;MAXZ:20
;Generated with Cura_SteamEngine 4.6.1
M140 S60
M105
M190 S60
M104 S215
M105
M109 S215
M82 ;absolute extrusion mode
; Ender 3 Custom Start G-code
G92 E0 ; Reset Extruder
G28 ; Home all axes
G1 Z2.0 F3000 ; Move Z Axis up little to prevent scratching of Heat Bed
G1 X0.1 Y20 Z0.3 F5000.0 ; Move to start position
G1 X0.1 Y200.0 Z0.3 F1500.0 E15 ; Draw the first line
G1 X0.4 Y200.0 Z0.3 F5000.0 ; Move to side a little
G1 X0.4 Y20 Z0.3 F1500.0 E30 ; Draw the second line
G92 E0 ; Reset Extruder
G1 Z2.0 F3000 ; Move Z Axis up little to prevent scratching of Heat Bed
G1 X5 Y20 Z0.3 F5000.0 ; Move over to prevent blob squish
G92 E0
G92 E0
G1 F3600 E-10
;LAYER_COUNT:100
;LAYER:0
M107
G0 F6000 X114.757 Y82.74 Z0.2
;TYPE:SKIRT
G1 F3600 E0
G1 F1200 X115.364 Y82.773 E0.02022
G1 X115.779 Y82.804 E0.03406
G1 X116.439 Y82.867 E0.05611
G1 X116.845 Y82.914 E0.06971
G1 X117.389 Y82.988 E0.08797
G1 X117.807 Y83.054 E0.10204
G1 X118.423 Y83.164 E0.12285
G1 X118.838 Y83.247 E0.13693
G1 X120.213 Y83.556 E0.1838
G1 X121.251 Y83.816 E0.21939
G1 X123.73 Y84.364 E0.30384
G1 X126.202 Y84.833 E0.38752
G1 X128.753 Y85.245 E0.47347
G1 X131.239 Y85.575 E0.55688
G1 X133.766 Y85.839 E0.64138
G1 X136.287 Y86.029 E0.72547
G1 X138.832 Y86.15 E0.81021
G1 X141.931 Y86.2 E0.9133
G1 X145.734 Y86.2 E1.03979
G1 X146.398 Y86.211 E1.06187
G1 X147.299 Y86.266 E1.0919
G1 X148.192 Y86.401 E1.12194
G1 X149.07 Y86.614 E1.15199
G1 X149.925 Y86.903 E1.182
G1 X150.752 Y87.268 E1.21207
G1 X151.543 Y87.703 E1.24209
G1 X152.292 Y88.208 E1.27214
G1 X152.994 Y88.776 E1.30217
G1 X153.643 Y89.404 E1.33221
G1 X154.233 Y90.088 E1.36226
G1 X154.761 Y90.82 E1.39227
G1 X155.222 Y91.597 E1.42232
G1 X155.613 Y92.411 E1.45236
G1 X155.929 Y93.257 E1.4824
G1 X156.17 Y94.127 E1.51242
G1 X156.333 Y95.016 E1.54248
G1 X156.427 Y96.194 E1.58179
G1 X156.45 Y97.4 E1.62191
G1 X156.449 Y118.004 E2.3072
G1 X156.439 Y118.731 E2.33138
G1 X156.387 Y119.633 E2.36143
G1 X156.255 Y120.526 E2.39146
G1 X156.044 Y121.405 E2.42152
G1 X155.757 Y122.261 E2.45155
G1 X155.395 Y123.088 E2.48158
G1 X154.961 Y123.88 E2.51161
G1 X154.459 Y124.631 E2.54166
G1 X153.893 Y125.334 E2.57168
G1 X153.266 Y125.985 E2.60174
G1 X152.585 Y126.577 E2.63175
G1 X151.854 Y127.107 E2.66178
G1 X151.078 Y127.57 E2.69184
G1 X150.265 Y127.963 E2.72187
G1 X149.42 Y128.283 E2.75192
G1 X148.551 Y128.526 E2.78194
G1 X147.663 Y128.691 E2.81198
G1 X146.527 Y128.787 E2.84989
G1 X145.92 Y128.8 E2.87009
G1 X141.86 Y128.8 E3.00512
G1 X139.254 Y128.837 E3.09181
G1 X136.689 Y128.946 E3.1772
G1 X134.182 Y129.124 E3.26079
G1 X131.641 Y129.375 E3.34572
G1 X129.133 Y129.696 E3.42981
G1 X126.628 Y130.09 E3.51415
G1 X124.141 Y130.552 E3.59829
G1 X121.646 Y131.089 E3.68317
G1 X119.374 Y131.645 E3.76097
G1 X119.013 Y131.726 E3.77327
G1 X118.533 Y131.821 E3.78955
G1 X117.513 Y131.999 E3.82399
G1 X116.741 Y132.104 E3.8499
G1 X115.779 Y132.197 E3.88205
G1 X115.309 Y132.231 E3.89772
G1 X114.691 Y132.262 E3.9183
G1 X114.289 Y132.274 E3.93168
G1 X113.445 Y132.283 E3.95975
G1 X112.611 Y132.258 E3.9875
G1 X111.39 Y132.171 E4.02821
G1 X110.571 Y132.079 E4.05563
G1 X109.657 Y131.939 E4.08638
G1 X109.207 Y131.86 E4.10158
G1 X108.334 Y131.686 E4.13118
G1 X107.523 Y131.49 E4.15893
G1 X105.478 Y130.905 E4.22968
G1 X102.948 Y130.214 E4.31691
G1 X100.465 Y129.611 E4.40189
G1 X97.994 Y129.084 E4.48593
G1 X95.512 Y128.627 E4.56987
G1 X93.014 Y128.24 E4.65394
G1 X89.297 Y127.796 E4.77845
G1 X88.758 Y127.743 E4.79646
G1 X87.864 Y127.615 E4.8265
G1 X86.984 Y127.408 E4.85657
G1 X86.127 Y127.124 E4.8866
G1 X85.298 Y126.766 E4.91663
G1 X84.504 Y126.335 E4.94668
G1 X83.751 Y125.837 E4.97671
G1 X83.046 Y125.273 E5.00673
G1 X82.448 Y124.707 E5.03412
G1 X81.838 Y124.041 E5.06416
G1 X81.289 Y123.324 E5.09419
G1 X80.807 Y122.56 E5.12424
G1 X80.393 Y121.757 E5.15429
G1 X80.053 Y120.921 E5.1843
G1 X79.787 Y120.058 E5.21434
G1 X79.599 Y119.175 E5.24437
G1 X79.49 Y118.278 E5.27442
G1 X79.462 Y117.696 E5.2938
G1 X79.454 Y117.29 E5.30731
G1 X79.453 Y116.948 E5.31868
G1 X79.461 Y116.368 E5.33798
G1 X79.485 Y115.792 E5.35715
G1 X79.563 Y114.709 E5.39326
G1 X79.64 Y113.8 E5.42361
G1 X79.784 Y111.245 E5.50872
G1 X79.855 Y108.714 E5.59293
G1 X79.853 Y106.179 E5.67725
G1 X79.78 Y103.61 E5.76273
G1 X79.636 Y101.092 E5.84661
G1 X79.493 Y99.32 E5.90574
G1 X79.464 Y98.797 E5.92316
G1 X79.456 Y98.522 E5.93232
G1 X79.453 Y98.111 E5.94599
G1 X79.461 Y97.395 E5.9698
G1 X79.511 Y96.493 E5.99985
G1 X79.64 Y95.6 E6.02986
G1 X79.848 Y94.721 E6.0599
G1 X80.134 Y93.864 E6.08995
G1 X80.493 Y93.035 E6.12
G1 X80.925 Y92.242 E6.15003
G1 X81.425 Y91.49 E6.18007
G1 X81.99 Y90.785 E6.21012
G1 X82.398 Y90.345 E6.23007
G1 X83.052 Y89.722 E6.26012
G1 X83.758 Y89.159 E6.29015
G1 X84.511 Y88.661 E6.32018
G1 X85.305 Y88.231 E6.35021
G1 X86.135 Y87.874 E6.38026
G1 X86.992 Y87.591 E6.41028
G1 X87.872 Y87.385 E6.44034
G1 X88.668 Y87.267 E6.4671
G1 X91.279 Y86.987 E6.55444
G1 X93.82 Y86.643 E6.63973
G1 X96.302 Y86.233 E6.7234
G1 X98.812 Y85.747 E6.80843
G1 X101.272 Y85.198 E6.89227
G1 X103.724 Y84.577 E6.97639
G1 X105.098 Y84.185 E7.02392
G1 X107.321 Y83.567 E7.10066
G1 X107.675 Y83.475 E7.11282
G1 X108.259 Y83.335 E7.1328
G1 X108.673 Y83.245 E7.14689
G1 X109.249 Y83.132 E7.16641
G1 X109.646 Y83.062 E7.17982
G1 X110.508 Y82.928 E7.20883
G1 X111.336 Y82.834 E7.23655
G1 X112.562 Y82.745 E7.27743
G1 X113.38 Y82.718 E7.30466
G1 X114.282 Y82.725 E7.33466
G1 X114.757 Y82.74 E7.35046
G0 F6000 X114.778 Y82.341
G1 F1200 X115.385 Y82.374 E7.37068
G1 X115.817 Y82.406 E7.38509
G1 X116.477 Y82.469 E7.40714
G1 X116.899 Y82.518 E7.42127
G1 X117.443 Y82.592 E7.43953
G1 X117.877 Y82.66 E7.45414
G1 X118.493 Y82.77 E7.47496
G1 X118.925 Y82.856 E7.48961
G1 X120.31 Y83.168 E7.53683
G1 X121.329 Y83.423 E7.57176
G1 X123.819 Y83.974 E7.65658
G1 X126.304 Y84.446 E7.74071
G1 X128.763 Y84.843 E7.82356
G1 X131.297 Y85.179 E7.90858
G1 X133.805 Y85.44 E7.99244
G1 X136.336 Y85.631 E8.07687
G1 X138.826 Y85.749 E8.15978
G1 X141.937 Y85.8 E8.26326
G1 X145.741 Y85.8 E8.38978
G1 X146.405 Y85.811 E8.41187
G1 X147.324 Y85.867 E8.44249
G1 X148.234 Y86.001 E8.47309
G1 X149.13 Y86.215 E8.50373
G1 X150.004 Y86.505 E8.53435
G1 X150.849 Y86.87 E8.56497
G1 X151.659 Y87.307 E8.59558
G1 X152.429 Y87.812 E8.62621
G1 X153.151 Y88.383 E8.65682
G1 X153.822 Y89.013 E8.68744
G1 X154.435 Y89.7 E8.71806
G1 X154.986 Y90.438 E8.74869
G1 X155.472 Y91.22 E8.77932
G1 X155.887 Y92.042 E8.80994
G1 X156.23 Y92.896 E8.84055
G1 X156.497 Y93.777 E8.87117
G1 X156.687 Y94.678 E8.9018
G1 X156.797 Y95.592 E8.93242
G1 X156.827 Y96.185 E8.95216
G1 X156.85 Y97.4 E8.99258
G1 X156.849 Y118.01 E9.67807
G1 X156.839 Y118.737 E9.70226
G1 X156.786 Y119.656 E9.73287
G1 X156.654 Y120.567 E9.76349
G1 X156.443 Y121.463 E9.79411
G1 X156.156 Y122.338 E9.82473
G1 X155.793 Y123.184 E9.85535
G1 X155.359 Y123.996 E9.88598
G1 X154.855 Y124.767 E9.91661
G1 X154.287 Y125.491 E9.94722
G1 X153.658 Y126.163 E9.97783
G1 X152.973 Y126.778 E10.00845
G1 X152.237 Y127.331 E10.03907
G1 X151.456 Y127.819 E10.0697
G1 X150.636 Y128.237 E10.10031
G1 X149.782 Y128.582 E10.13095
G1 X148.902 Y128.851 E10.16155
G1 X148.001 Y129.044 E10.1922
G1 X147.088 Y129.157 E10.2228
G1 X146.538 Y129.187 E10.24112
G1 X145.92 Y129.2 E10.26168
G1 X141.866 Y129.2 E10.39652
G1 X139.241 Y129.237 E10.48383
G1 X136.733 Y129.344 E10.56732
G1 X134.213 Y129.522 E10.65135
G1 X131.698 Y129.771 E10.73541
G1 X129.209 Y130.09 E10.81887
G1 X126.657 Y130.491 E10.90479
G1 X124.226 Y130.943 E10.98703
G1 X121.72 Y131.482 E11.07229
G1 X119.462 Y132.035 E11.14961
G1 X119.101 Y132.116 E11.16191
G1 X118.602 Y132.215 E11.17883
G1 X117.582 Y132.393 E11.21327
G1 X116.78 Y132.502 E11.24019
G1 X115.818 Y132.595 E11.27234
G1 X115.329 Y132.631 E11.28864
G1 X114.711 Y132.662 E11.30923
G1 X114.293 Y132.674 E11.32313
G1 X113.449 Y132.683 E11.35121
G1 X112.583 Y132.657 E11.38002
G1 X111.362 Y132.57 E11.42074
G1 X110.51 Y132.475 E11.44925
G1 X109.596 Y132.335 E11.48
G1 X109.129 Y132.253 E11.49577
G1 X108.256 Y132.079 E11.52538
G1 X107.413 Y131.874 E11.55424
G1 X105.43 Y131.307 E11.62284
G1 X102.812 Y130.592 E11.7131
G1 X100.393 Y130.005 E11.79589
G1 X97.917 Y129.476 E11.8801
G1 X95.444 Y129.021 E11.96373
G1 X92.962 Y128.637 E12.04727
G1 X89.265 Y128.195 E12.17111
G1 X88.718 Y128.141 E12.18939
G1 X87.807 Y128.011 E12.21999
G1 X86.91 Y127.803 E12.25062
G1 X86.035 Y127.517 E12.28124
G1 X85.188 Y127.157 E12.31185
G1 X84.375 Y126.724 E12.34249
G1 X83.603 Y126.223 E12.3731
G1 X82.877 Y125.656 E12.40373
G1 X82.262 Y125.087 E12.4316
G1 X82.165 Y124.99 E12.43616
G1 X81.543 Y124.312 E12.46677
G1 X80.982 Y123.582 E12.49739
G1 X80.486 Y122.806 E12.52802
G1 X80.06 Y121.99 E12.55863
G1 X79.706 Y121.14 E12.58926
G1 X79.428 Y120.262 E12.61989
G1 X79.226 Y119.364 E12.6505
G1 X79.103 Y118.451 E12.68115
G1 X79.062 Y117.704 E12.70603
G1 X79.054 Y117.298 E12.71953
G1 X79.053 Y116.943 E12.73134
G1 X79.061 Y116.363 E12.75063
G1 X79.086 Y115.763 E12.77061
G1 X79.164 Y114.675 E12.80689
G1 X79.243 Y113.744 E12.83796
G1 X79.384 Y111.246 E12.92118
G1 X79.455 Y108.703 E13.00579
G1 X79.453 Y106.19 E13.08938
G1 X79.38 Y103.645 E13.17406
G1 X79.235 Y101.103 E13.25874
G1 X79.094 Y99.352 E13.31717
G1 X79.064 Y98.808 E13.33529
G1 X79.056 Y98.533 E13.34444
G1 X79.053 Y98.107 E13.35861
G1 X79.061 Y97.391 E13.38243
G1 X79.111 Y96.471 E13.41307
G1 X79.241 Y95.56 E13.44368
G1 X79.449 Y94.663 E13.4743
G1 X79.735 Y93.788 E13.50492
G1 X80.095 Y92.941 E13.53553
G1 X80.527 Y92.128 E13.56615
G1 X81.029 Y91.356 E13.59678
G1 X81.595 Y90.63 E13.6274
G1 X82.109 Y90.068 E13.65273
G1 X82.775 Y89.432 E13.68336
G1 X83.494 Y88.857 E13.71398
G1 X84.259 Y88.346 E13.74458
G1 X85.067 Y87.903 E13.77523
G1 X85.909 Y87.532 E13.80583
G1 X86.781 Y87.235 E13.83647
G1 X87.675 Y87.015 E13.86709
G1 X88.626 Y86.869 E13.89909
G1 X91.25 Y86.588 E13.98686
G1 X93.738 Y86.25 E14.07038
G1 X96.232 Y85.839 E14.15445
G1 X98.754 Y85.35 E14.23989
G1 X101.15 Y84.816 E14.32154
G1 X103.621 Y84.19 E14.40632
G1 X104.991 Y83.799 E14.4537
G1 X107.214 Y83.181 E14.53045
G1 X107.582 Y83.086 E14.54309
G1 X108.166 Y82.946 E14.56306
G1 X108.596 Y82.852 E14.5777
G1 X109.172 Y82.739 E14.59722
G1 X109.585 Y82.667 E14.61117
G1 X110.447 Y82.533 E14.64018
G1 X111.308 Y82.435 E14.669
G1 X112.534 Y82.346 E14.70989
G1 X113.383 Y82.318 E14.73814
G1 X114.285 Y82.325 E14.76814
G1 X114.778 Y82.341 E14.78455
G0 F6000 X114.8 Y81.941
G1 F1200 X115.407 Y81.974 E14.80477
G1 X115.855 Y82.008 E14.81971
G1 X116.515 Y82.071 E14.84176
G1 X116.953 Y82.121 E14.85642
G1 X117.497 Y82.195 E14.87468
G1 X117.948 Y82.266 E14.88987
G1 X118.564 Y82.376 E14.91068
G1 X119.011 Y82.466 E14.92585
G1 X120.407 Y82.78 E14.97344
G1 X121.399 Y83.028 E15.00745
G1 X123.921 Y83.586 E15.09336
G1 X126.365 Y84.05 E15.1761
G1 X128.848 Y84.451 E15.25975
G1 X131.32 Y84.779 E15.34269
G1 X133.84 Y85.042 E15.42696
G1 X136.349 Y85.231 E15.51065
G1 X138.851 Y85.35 E15.59396
G1 X141.944 Y85.4 E15.69685
G1 X145.747 Y85.401 E15.82334
G1 X146.411 Y85.412 E15.84542
G1 X147.347 Y85.467 E15.87661
G1 X148.276 Y85.602 E15.90783
G1 X149.189 Y85.816 E15.93902
G1 X150.08 Y86.106 E15.97019
G1 X150.944 Y86.472 E16.0014
G1 X151.774 Y86.91 E16.03261
G1 X152.563 Y87.416 E16.06379
G1 X153.306 Y87.989 E16.09499
G1 X153.997 Y88.622 E16.12616
G1 X154.633 Y89.312 E16.15737
G1 X155.207 Y90.054 E16.18857
G1 X155.715 Y90.842 E16.21976
G1 X156.155 Y91.67 E16.25094
G1 X156.523 Y92.533 E16.28215
G1 X156.816 Y93.424 E16.31334
G1 X157.032 Y94.336 E16.34452
G1 X157.169 Y95.264 E16.37572
G1 X157.227 Y96.177 E16.40614
G1 X157.25 Y97.4 E16.44683
G1 X157.249 Y118.015 E17.13249
G1 X157.239 Y118.742 E17.15667
G1 X157.186 Y119.679 E17.18788
G1 X157.054 Y120.607 E17.21906
G1 X156.843 Y121.521 E17.25026
G1 X156.554 Y122.413 E17.28144
G1 X156.191 Y123.278 E17.31265
G1 X155.756 Y124.109 E17.34384
G1 X155.251 Y124.899 E17.37503
G1 X154.681 Y125.644 E17.40623
G1 X154.05 Y126.338 E17.43742
G1 X153.361 Y126.975 E17.46863
G1 X152.621 Y127.551 E17.49982
G1 X151.835 Y128.062 E17.531
G1 X151.008 Y128.504 E17.56219
G1 X150.146 Y128.874 E17.59339
G1 X149.256 Y129.169 E17.62458
G1 X148.344 Y129.388 E17.65577
G1 X147.417 Y129.528 E17.68696
G1 X146.549 Y129.587 E17.71589
G1 X145.92 Y129.6 E17.73682
G1 X141.872 Y129.6 E17.87145
G1 X139.264 Y129.637 E17.9582
G1 X136.743 Y129.744 E18.04213
G1 X134.248 Y129.921 E18.12532
G1 X131.748 Y130.169 E18.20888
G1 X129.255 Y130.488 E18.29247
G1 X126.762 Y130.879 E18.3764
G1 X124.272 Y131.342 E18.46064
G1 X121.835 Y131.867 E18.54356
G1 X119.549 Y132.425 E18.62182
G1 X119.188 Y132.506 E18.63413
G1 X118.671 Y132.609 E18.65166
G1 X117.651 Y132.787 E18.6861
G1 X116.818 Y132.9 E18.71406
G1 X115.856 Y132.993 E18.7462
G1 X115.349 Y133.03 E18.76311
G1 X114.731 Y133.061 E18.78369
G1 X114.297 Y133.074 E18.79813
G1 X113.453 Y133.083 E18.82621
G1 X112.554 Y133.056 E18.85612
G1 X111.333 Y132.969 E18.89683
G1 X110.45 Y132.87 E18.92639
G1 X109.536 Y132.73 E18.95714
G1 X109.051 Y132.645 E18.97352
G1 X108.178 Y132.471 E19.00313
G1 X107.303 Y132.259 E19.03307
G1 X105.223 Y131.664 E19.10503
G1 X102.751 Y130.989 E19.19026
G1 X100.329 Y130.401 E19.27315
G1 X97.826 Y129.866 E19.35828
G1 X95.347 Y129.411 E19.44211
G1 X92.913 Y129.034 E19.52403
G1 X89.222 Y128.592 E19.64767
G1 X88.679 Y128.539 E19.66582
G1 X87.751 Y128.407 E19.69699
G1 X86.837 Y128.197 E19.72819
G1 X85.944 Y127.91 E19.75938
G1 X85.079 Y127.548 E19.79057
G1 X84.248 Y127.113 E19.82177
G1 X83.457 Y126.609 E19.85296
G1 X82.711 Y126.04 E19.88417
G1 X81.979 Y125.37 E19.91717
G1 X81.882 Y125.273 E19.92174
G1 X81.248 Y124.582 E19.95293
G1 X80.674 Y123.84 E19.98413
G1 X80.167 Y123.051 E20.01532
G1 X79.728 Y122.223 E20.04649
G1 X79.361 Y121.359 E20.07771
G1 X79.069 Y120.468 E20.1089
G1 X78.855 Y119.555 E20.14009
G1 X78.718 Y118.627 E20.17129
G1 X78.662 Y117.712 E20.20178
G1 X78.654 Y117.306 E20.21529
G1 X78.653 Y116.937 E20.22756
G1 X78.661 Y116.357 E20.24685
G1 X78.687 Y115.735 E20.26756
G1 X78.766 Y114.641 E20.30404
G1 X78.841 Y113.756 E20.33358
G1 X78.984 Y111.213 E20.41829
G1 X79.055 Y108.692 E20.50218
G1 X79.053 Y106.167 E20.58616
G1 X78.982 Y103.677 E20.66901
G1 X78.836 Y101.117 E20.75429
G1 X78.696 Y99.384 E20.81212
G1 X78.665 Y98.82 E20.83091
G1 X78.657 Y98.545 E20.84006
G1 X78.653 Y98.102 E20.85479
G1 X78.661 Y97.386 E20.87861
G1 X78.711 Y96.45 E20.90979
G1 X78.841 Y95.521 E20.94098
G1 X79.05 Y94.606 E20.9722
G1 X79.336 Y93.713 E21.00339
G1 X79.697 Y92.848 E21.03456
G1 X80.13 Y92.016 E21.06576
G1 X80.632 Y91.224 E21.09695
G1 X81.201 Y90.478 E21.12815
G1 X81.725 Y89.891 E21.15432
G1 X81.821 Y89.791 E21.15893
G1 X82.498 Y89.143 E21.1901
G1 X83.229 Y88.555 E21.22131
G1 X84.007 Y88.031 E21.25251
G1 X84.827 Y87.575 E21.28371
G1 X85.682 Y87.191 E21.31489
G1 X86.568 Y86.881 E21.34611
G1 X87.476 Y86.648 E21.37728
G1 X88.583 Y86.472 E21.41457
G1 X91.195 Y86.192 E21.50194
G1 X93.686 Y85.854 E21.58555
G1 X96.162 Y85.446 E21.66901
G1 X98.622 Y84.969 E21.75236
G1 X101.078 Y84.421 E21.83605
G1 X103.54 Y83.798 E21.92052
G1 X104.884 Y83.414 E21.96701
G1 X107.107 Y82.796 E22.04375
G1 X107.489 Y82.697 E22.05688
G1 X108.073 Y82.557 E22.07685
G1 X108.519 Y82.46 E22.09203
G1 X109.095 Y82.347 E22.11155
G1 X109.523 Y82.272 E22.12601
G1 X110.385 Y82.138 E22.15502
G1 X111.279 Y82.036 E22.18495
G1 X112.505 Y81.947 E22.22583
G1 X113.386 Y81.918 E22.25515
G1 X114.288 Y81.925 E22.28515
G1 X114.8 Y81.941 E22.30219
G1 F3600 E12.30219
;MESH:Endswitch Ender3 clamp.stl
G0 F6000 X119.985 Y93.568
G0 X119.64 Y94.383
G0 X123.736 Y98.21
